src/icons/toggle-on.svg

<?xml version="1.0" encoding="UTF-8"?>
<svg width="100pt" height="100pt" version="1.1" viewBox="0 0 100 100"
    xmlns="http://www.w3.org/2000/svg">
    <g>
        <path
            d="m72.5 36.25c-7.582 0-13.75 6.168-13.75 13.75s6.168 13.75 13.75 13.75 13.75-6.168 13.75-13.75-6.168-13.75-13.75-13.75zm0 25c-6.2031 0-11.25-5.0469-11.25-11.25s5.0469-11.25 11.25-11.25 11.25 5.0469 11.25 11.25-5.0469 11.25-11.25 11.25z" />
        <path
            d="m46.617 41.617-14.117 14.113-6.6172-6.6172c-0.48828-0.48828-1.2773-0.48828-1.7695 0-0.48828 0.48828-0.48828 1.2773 0 1.7695l7.5 7.5c0.24219 0.24219 0.5625 0.36719 0.88281 0.36719 0.32031 0 0.64062-0.12109 0.88281-0.36719l15-15c0.48828-0.48828 0.48828-1.2773 0-1.7695-0.48438-0.48438-1.2734-0.48438-1.7617 0.003907z" />
        <path
            d="m72.5 27.5h-45c-12.406 0-22.5 10.094-22.5 22.5s10.094 22.5 22.5 22.5h45c12.406 0 22.5-10.094 22.5-22.5s-10.094-22.5-22.5-22.5zm0 40h-45c-9.6484 0-17.5-7.8516-17.5-17.5s7.8516-17.5 17.5-17.5h45c9.6484 0 17.5 7.8516 17.5 17.5s-7.8516 17.5-17.5 17.5z" />
    </g>
</svg>

<svg role="img" viewBox="0 0 100 100" xmlns="http://www.w3.org/2000/svg"><path d="M72.5 36.25c-7.582 0-13.75 6.168-13.75 13.75s6.168 13.75 13.75 13.75S86.25 57.582 86.25 50 80.082 36.25 72.5 36.25m0 25c-6.203 0-11.25-5.047-11.25-11.25s5.047-11.25 11.25-11.25S83.75 43.797 83.75 50 78.703 61.25 72.5 61.25M46.617 41.617 32.5 55.73l-6.617-6.617a1.252 1.252 0 0 0-1.77 1.77l7.5 7.5a1.249 1.249 0 0 0 1.766 0l15-15a1.246 1.246 0 1 0-1.762-1.766M72.5 27.5h-45C15.094 27.5 5 37.594 5 50s10.094 22.5 22.5 22.5h45C84.906 72.5 95 62.406 95 50S84.906 27.5 72.5 27.5m0 40h-45C17.852 67.5 10 59.648 10 50s7.852-17.5 17.5-17.5h45C82.148 32.5 90 40.352 90 50s-7.852 17.5-17.5 17.5"/></svg>
